X:14697
T:Ríu Verde (MQ 036)
R:Fandangu
C:Tradicional
S:Música Tradicional Asturiana, (C) Tello & Tito. Asturies, 2001.
S:http://pagina.de/MusTradAst <telloytito@asturies.org>
N:Canción muy popular en toda la zona central asturiana, para bailarla se coge la gente formando un corro quedando un mozo o una moza solos en el centro de él.
N:Los del corro danzan alrededor mientras cantan y en un momento determinado cuando la letra de la canción lo indica, la persona que está en el centro coge a otra de distinto sexo del corro y baila con ella al mismo ritmo de la música pero a lo "agarrao".
N:Yo la aprendí en Quirós siendo un crío.
A:Asturies
Z:Manolo Quirós 036
M:3/8
L:1/8
Q:3/8=60
K:C
|E2 D|C2 C|CB,C|D3|G2 F|E2 E|DED|C3|
E2 D|C2 C|CB,C|D3|G2 F|E2 E|DED|C2 C/C/|
CED|C2 C/C/|CB,C|D2 D/D/|DGF|EFE|DED|C2 C/C/|
CED|C2 C/C/|CB,C|D2 D/D/|DGF|EFE|DED|C3||
